X: 41018
T: Trip To Herve's, The
R: reel
M: 4/4
K: Fmajor
c3 B|:Ac (3ccA cdfg|afc'a fcAc|d (3ddd f cAFG|AG (3GGF (3GAG FG|
Ac (3ccA cdfg|{a}gac'a fc'af|cd (3ddc cf AG|(3AGF EG EF (3FFF:|
d (3edF e Ffdc|GA (3AAG (3ABA GA|FD (3GAB c2 FG|ABcF FEFc|
d (3edF e Ffdc|GA (3AAG (3ABA GA|F2 (3GAB cdcB|(3ABA GBAF (3GAc|
d (3edF e Ffdc|GA (3AAG (3ABA GA|FGAB c2 FG|ABcF FEFc|
d (3ddF c (3ccF|A3 G (3AGF GF (3GAc|d2 Fc2 F (3GAc|fdcA GBAG||

